X: 5
T:Coppers and Brass
T:Humours of Ennistymon, The
T:Hartigan's Fancy
M:6/8
L:1/8
R:Double Jig
K:G
A[|:B2B GBd|cBc ABc|B2B GBd|cAG FGA|!
B2B GBd|cBc ABc|ded cAF|1AGF G2A:|2AGF G2d|!
|:f2f fed|cAG FGA|g2g gfg|afd d2e|!
fag fed|cAG FGA|BdB cAF|AGF G2d:|]!
gdB gdB|ecA ecA|B2B GBd|cAG FGA|!
gdB gdB|ecA ecA|B2B GBd|cAF G2d||!
gdB gdB|"var."e/2f/2gf edc|B2B GBd|cAG FGA|!
B2B GBd|cBc ABc|ded cAF|AGF G2A|]!
